X:1
T:Title
%%score { ( 1 3 ) | ( 2 4 ) }
L:1/8
Q:1/4=92
M:4/4
K:Bb
V:1 treble nm="Grand Piano"
V:3 treble 
V:2 bass 
V:4 bass 
V:1
 [DF]2 [_D=E][=DF] [Fd][DB][DF][D^F] | [EG]2 [Ge]2 [Fd]4 | c2 =Bc dcAG | [EG]2 [_D=E]2 [=DF]4 | %4
w: B.~D.~Ackley * * * * * *||||
 [DF]2 [_D=E][=DF] [Fd][DB][DF][D^F] | [EG]2 [Ge]2 [Fd]4 | [Fc]2 [CFA][CGB] [FAc][CFA][A,F][DFB] | %7
w: |||
 [CFA]2 .[C=EG]2 [A,F]4 | z [Fd]3- [Fd]2 z2 | [EG]2 [Ge]2 [Fd]4 | d c2 =B d2 c2 | %11
w: ||||
 [DB]2 [EB]2 [DF]4 | z [Fd]3- [Fd]2 z2 | [EG]2 [Ge]2 [^Fd]4 | c B2 G [DF]2 [Fd]2 | %15
w: ||||
 [Ec]3 [DB] [DB]4 |] %16
w: |
V:2
 [B,,B,]2 [B,,B,][B,,B,] [B,,B,][B,,B,][B,,B,][B,,B,] | [E,B,]2 [E,B,]2 [B,,B,]4 | %2
 [F,A,E]2 [F,_A,D][F,=A,E] [F,A,F][F,A,E][F,CE][F,A,E] | [B,,B,]2 [B,,G,]2 [B,,B,]4 | %4
 [B,,B,]2 [B,,B,][B,,B,] [B,,B,][B,,B,][B,,B,][B,,B,] | [E,B,]2 [E,B,]2 [B,,B,]4 | %6
 [F,A,]2 F,F, F,F,F,B,, | C,2 z B, z2 E2 | [B,,B,][B,,B,] z2 B,,B,,[B,,B,][B,,B,] | %9
 [E,B,]2 [E,B,]2 [B,,B,]4 | [F,B,F] [F,A,E]2 [F,_A,D] [F,=A,F]2 [F,A,E]2 | %11
 [B,,F,]2 [B,,G,]2 [B,,B,]4 | [B,,B,][B,,B,] z2 B,,B,,[B,,B,][B,,B,] | [E,B,]2 [C,C]2 [D,A,]4 | %14
 [E,G,E] [E,G,E]2 [E,B,E] [B,,B,]2 [B,,B,]2 | [F,A,]3 [B,,F,B,] [B,,F,B,]4 |] %16
V:3
 x8 | x8 | x8 | x8 | x8 | x8 | x8 | z4 C2 z2 | .[DF]2 z2 B,B,[DF][D^F] | x8 | x8 | x8 | %12
 .[DF]2 z2 B,B,[DF][D^F] | x8 | x8 | x8 |] %16
V:4
 x8 | x8 | x8 | x8 | x8 | x8 | x8 | z2 C,2 F,4 | x8 | x8 | x8 | x8 | x8 | x8 | x8 | x8 |] %16

